remix/Design/shape-2-fill.svg

<svg viewBox="0 0 24 24" xmlns="http://www.w3.org/2000/svg"><path fill="none" d="M0 0h24v24H0Z"/><path d="M2 2h5v5H2V2Zm0 15h5v5H2v-5ZM17 2h5v5h-5V2Zm0 15h5v5h-5v-5ZM8 4h8v2H8V4ZM4 8h2v8H4V8Zm14 0h2v8h-2V8ZM8 18h8v2H8v-2Z"/></svg>

<svg viewBox="0 0 24 24" fill="currentColor" xmlns="http://www.w3.org/2000/svg"><path d="M2 2H7V7H2V2ZM2 17H7V22H2V17ZM17 2H22V7H17V2ZM17 17H22V22H17V17ZM8 4H16V6H8V4ZM4 8H6V16H4V8ZM18 8H20V16H18V8ZM8 18H16V20H8V18Z"/></svg>
